X:239
T:Miss McDonald
Z: id:dc-reel-371
M:C
L:1/8
K:G Major
dc|BGG2 BdcA|BGBd g2fg|aAA2 ABcA|Bdef ge:|!
dB|G3D EDEF|GFGD B,G,B,D|G3D EDEd|egdB BA:|!
Bd|gdBd gagf|edef gdBd|gdBd gagf|edef g2ef|!
gdBd gdBd|gbaf gdBd|gfga gfed|egfa gd|]!
Bd|egdB cBAB|GBB2 GBdg|eBdB cBAB|GEDE G2gf|!
egdB cBAB|GBB2 GBdg|e3g efge|dfaf ge|]!